src/components/content/our-services/components.svg

<svg width="38" height="38" viewBox="0 0 38 38" fill="none" xmlns="http://www.w3.org/2000/svg">
<path d="M0.25 0.25H16.9167V16.9167H0.25V0.25ZM21.0833 0.25H37.75V16.9167H21.0833V0.25ZM0.25 21.0833H16.9167V37.75H0.25V21.0833ZM31.5 21.0833H27.3333V27.3333H21.0833V31.5H27.3333V37.75H31.5V31.5H37.75V27.3333H31.5V21.0833Z" fill="#04E0BD"/>
</svg>

<svg xmlns="http://www.w3.org/2000/svg" width="38" height="38" fill="none">
  <path fill="#04E0BD"
        d="M.25.25h16.667v16.667H.25V.25Zm20.833 0H37.75v16.667H21.083V.25ZM.25 21.083h16.667V37.75H.25V21.083Zm31.25 0h-4.167v6.25h-6.25V31.5h6.25v6.25H31.5V31.5h6.25v-4.167H31.5v-6.25Z"/>
</svg>
